X: 05089
T: The TROUBADOR'S JIG
C: Bob McQuillen 7 Mar 81
B: Bob's Note Book 5 #89
%R: jig
Z: 2021 John Chambers <jc:trillian.mit.edu>
M: 6/8
L: 1/8
K: G	% and Em
D3 \
| GFG ABc | dBG GBd | gfg e2g | d3- dBd | ecA ABc | dBG GAB | Ade efg | a2f dga |
| bab aga | bgg g2a | bgb aba | gee e2f | gag gfe | dBd ged | BGB AGF | G3 ||
|| A3 \
| BcB AGA | BGE E2F | GAG F2G | E3- EGA | BcB AGA | Bee e2f | gag f2d | e3 g2a |
| bgg bab | gfe d2g | eBe geg | d2B ABA | GEG Bde | d2B ABd | efg f2d | e3 :|
%%begintext align
%% This tune is for Bill Staines,
%% and if you have ever heard him sing, then you know
%% why. If N.H. State Troubador was an elected office,
%% Bill would win in a landslide. Best wishes always,
%% Bill - I hope you like this tune -
%%endtext

%%sep 1 1 500

%%sep 1 1 500

